X:1
Q:1/4=92
L:1/8
M:2/4
K:C clef=G2
V:1
%%MIDI program 48
z4|z4|z4|z2zz/2C7/16|
Dz/2E7/16Fz31/64F7/16|Fz/2F7/16Fz/2F7/16|Fz/2E7/16Ez/2D7/16|Dz/2^C7/16Dz/2E7/16|
Fz/2G7/16Az/2A7/16|Az/2A7/16Az/2A7/16|Az/2G7/16Gz/2F7/16|Fz/2E7/16Fz/2C7/16|
Dz/2E7/16Fz/2F7/16|Fz/2F7/16Fz/2F7/16|Fz/2E7/16Ez/2D7/16|Dz/2^C7/16Dz/2E7/16|
Fz/2G7/16Az/2A7/16|Az/2A7/16Az/2A7/16|Az/2G7/16Gz/2F7/16|Fz/2E7/16F3/2-F3/16z3/8|
z4|z4|z4|z4|
z4|z4|z4|z4|
z4|z4|z4|z4|
z4|z4|z4|z4|
z4|z4|z4|z4|
z4|z4|z4|z4|
z4|z4|z4|z4|
z4|z4|z4|z4|
z4|z4|z4|z4|
z4|z4|z4|z4|
z4|z4|z4|z2zz/2
L:1/8
M:2/4
K:C clef=G2
V:2
%%MIDI program 56
z4|z4|z4|z4|
z4|z4|z4|z4|
z4|z4|z4|z4|
z4|z4|z4|z4|
z4|z4|z4|z4|
a15/16a15/16f31/16|f3/2-f/8z3/8e7/4z3/16|dz/2e15/32fz/2f15/32|ez/2d15/32f2-|
f2-f/2zz7/16|z4|a15/16a15/16f2-|f3/2-f/8z3/8e7/4z3/16|
dz/2e15/32fz/2f15/32|ez/2d15/32f2-|f2-f/2zz7/16|z4|
a15/16a15/16f31/16|f3/2-f/8z3/8e7/4z3/16|dz/2e15/32fz/2f15/32|ez/2d15/32f2-|
f2-f/2zz7/16|z4|a15/16a15/16f2-|f3/2-f/8z3/8e7/4z3/16|
dz/2e15/32fz/2f15/32|ez/2d15/32f2-|f2-f/2zz7/16|z4|
f15/16g15/16az31/64f7/16|gz/2a7/16^az/2g7/16|az/2^a7/16c'2-|c'3z31/32|
fz/2g7/16az/2f7/16|gz/2a7/16^az/2g7/16|az/2^a7/16c'2-|c'3z31/32|
fz/2f7/16d'7/8z/8c'7/8z/8|d'7/8z/8c'7/8z/8d'7/8z/8c'7/8z/8|^a7/8z/8a7/8z/8c'3/2-c'3/16z3/8|c'3/2-c'3/16z2z3/8|
fz/2f7/16d'7/8z/8c'7/8z/8|d'7/8z/8c'7/8z/8d'7/8z/8c'7/8z/8|^a7/8z/8a7/8z/8c'3/2-c'3/16z3/8|c'3/2-c'3/16z2z3/8|
^az/2c'7/16a3/2-a3/16z3/8|az/2^a7/16g3/2-g3/16z3/8|gz/2a7/16f2-|f2-f3/4z15/16
L:1/8
M:2/4
K:C clef=F4
V:3
%%MIDI program 48
z4|z4|z4|z2zz/2C,15/32|
D,z/2E,15/32F,3/2-F,3/16z3/8|E,3/2-E,3/16z3/8D,3/2-D,3/16z3/8|D,3-D,3/8z3/4|zz/2A,7/16D,z/2E,7/16|
F,z/2G,7/16A,3/2-A,3/16z3/8|G,3/2-G,3/16z3/8F,3/2-F,3/16z3/8|G,3/2-G,3/16z3/8G,3/2-G,3/16z3/8|C,3/2-C,3/16z3/8F,z/2C,7/16|
D,z/2E,7/16F,3/2-F,3/16z3/8|E,3/2-E,3/16z3/8D,3/2-D,3/16z3/8|D,3-D,3/8z3/4|zz/2A,7/16D,z/2E,7/16|
F,z/2G,7/16A,3/2-A,3/16z3/8|G,3/2-G,3/16z3/8F,3/2-F,3/16z3/8|G,3/2-G,3/16z3/8G,3/2-G,3/16z3/8|C,3/2-C,3/16z3/8F,3/2-F,3/16z3/8|
z2F,15/16F,15/16|G,4-|G,15/8C,2-|C,zF,z/2F,3/8z/8|
F,/2(3:2z/4F,/2z/4F,/2(3:2z/4F,z/2E,3/8z/8|E,z/2D,3/8z/8D,z/2C,3/8z/8|z2F,7/8z/8F,7/8z/8|G,4-|
G,31/16C,2-|C,zF,z/2F,3/8z/8|F,/2(3:2z/4F,/2z/4F,/2(3:2z/4F,z/2E,3/8z/8|E,z/2D,3/8z/8D,z/2C,3/8z/8|
z2F,15/16F,15/16|G,4-|G,15/8C,2-|C,zF,z/2F,3/8z/8|
F,/2(3:2z/4F,/2z/4F,/2(3:2z/4F,z/2E,3/8z/8|E,z/2D,3/8z/8D,z/2C,3/8z/8|z2F,7/8z/8F,7/8z/8|G,4-|
G,31/16C,2-|C,zF,z/2F,3/8z/8|F,/2(3:2z/4F,/2z/4F,/2(3:2z/4F,z/2E,3/8z/8|E,z/2D,3/8z/8D,z/2C,3/8z/8|
F,,z/2F,7/16F,,z31/64F,3/8z/8|F,,z/2F,3/8z/8F,,z/2F,3/8z/8|F,3/4z/4F,3/8z/8F,3/8z/8C,2-|C,2-C,3/4zz3/8|
C,z/2C3/8z/8C,z/2C3/8z/8|C,z/2C3/8z/8C,z/2C3/8z/8|C3/4z/4C3/8z/8C3/8z/8F,2-|F,2-F,3/4zz3/8|
z2^A,,3/2z15/32|^A,,3/2z15/32^A,,2-|^A,,zA,,3/2z15/32|A,,3/2z15/32C,3/2z15/32|
z2^A,3/2z15/32|A,3/2z15/32G,3/2z15/32|E,3/2z15/32F,3/2z15/32|F,3/2z15/32C,3/2z15/32|
D,/2(3:2z/4D,/2z/4D,/2(3:2z/4F,3/2z15/32|F,/2(3:2z/4F,/2z/4F,/2(3:2z/4E,3/2z15/32|C,/2(3:2z/4C,/2z/4C,/2(3:2z/4F,z/2F,3/8z/8|F,/2(3:2z/4F,/2z/4F,/2(3:2z/4F,3/2
L:1/8
M:2/4
K:C clef=G2
V:4
%%MIDI program 56
z4|z4|z4|z4|
z2Fz31/64F15/32|Fz/2F15/32Fz/2F15/32|Fz/2E15/32Ez/2D15/32|Dz/2^C15/32Dz/2E15/32|
Fz/2G15/32Az/2A15/32|Az/2A15/32Az/2A15/32|Az/2G15/32Gz/2F15/32|Fz/2E15/32Fz/2C15/32|
Dz/2E15/32Fz/2F15/32|Fz/2F15/32Fz/2F15/32|Fz/2E15/32Ez/2D15/32|Dz/2^C15/32Dz/2E15/32|
Fz/2G15/32Az/2A15/32|Az/2A15/32Az/2A15/32|Az/2G15/32Gz/2F15/32|Fz/2E15/32F7/4z3/16|
z4|z4|z4|z4|
z4|z4|z4|z4|
z4|z4|z4|z4|
z4|z4|z4|z4|
z4|z4|z4|z4|
z4|z4|z4|z4|
z4|z4|z4|z4|
z4|z4|z4|z4|
z4|z4|z4|z4|
z4|z4|z4|z4|
z4|z4|z4|z2zz/2
L:1/8
M:2/4
K:C clef=G2
V:5
%%MIDI program 48
z4|z4|z4|z4|
z4|z4|z4|z4|
z4|z4|z4|z4|
z4|z4|z4|z4|
z4|z4|z4|z4|
A15/16A15/16F31/16|F3/2-F/8z3/8E7/4z3/16|Dz/2E15/32Fz/2F15/32|Ez/2D15/32F2-|
F2-F/2z15/16E3/8z/8|Ez/2D3/8z/8Dz/2C3/8z/8|A15/16A15/16F2-|F3/2-F/8z3/8E7/4z3/16|
Dz/2E15/32Fz/2F15/32|Ez/2D15/32F2-|F2-F/2z15/16E3/8z/8|Ez/2D3/8z/8Dz/2C3/8z/8|
A15/16A15/16F31/16|F3/2-F/8z3/8E7/4z3/16|Dz/2E15/32Fz/2F15/32|Ez/2D15/32F2-|
F2-F/2z15/16E3/8z/8|Ez/2D3/8z/8Dz/2C3/8z/8|A15/16A15/16F2-|F3/2-F/8z3/8E7/4z3/16|
Dz/2E15/32Fz/2F15/32|Ez/2D15/32F2-|F2-F/2z15/16E3/8z/8|Ez/2D3/8z/8Dz/2C3/8z/8|
A15/16A15/16Az31/64F7/16|Gz/2A7/16^Az/2G7/16|Az/2^A7/16c2-|c3z31/32|
Fz/2G7/16Az/2F7/16|Gz/2A7/16^Az/2G7/16|Az/2^A7/16c2-|c3z31/32|
Fz/2F7/16d7/8z/8c7/8z/8|d7/8z/8c7/8z/8d7/8z/8c7/8z/8|^A7/8z/8A7/8z/8c3/2-c3/16z3/8|c3/2-c3/16z2z3/8|
Fz/2F7/16d7/8z/8c7/8z/8|d7/8z/8c7/8z/8d7/8z/8c7/8z/8|^A7/8z/8A7/8z/8c3/2-c3/16z3/8|c3/2-c3/16z2z3/8|
^Az/2c7/16A3/2-A3/16z3/8|Az/2^A7/16G3/2-G3/16z3/8|Gz/2A7/16F2-|F2-F3/4z15/16
L:1/8
M:2/4
K:C clef=F4
V:6
%%MIDI program 47
(5:3F,/4F,/4F,/4F,/4F,/4(5:3F,/4F,/4F,/4F,/4F,/4(5:3F,/4F,/4F,15/16z/2F,15/32|F,3/4F,3/4F,3/4F,15/16z|(5:3F,/4F,/4F,/4F,/4F,/4(5:3F,/4F,/4F,/4F,/4F,/4(5:3F,/4F,/4F,z/2F,15/32|F,3/4F,3/4F,3/4F,15/16z|
z2F,3/2-F,3/16z3/8|E,3/2-E,3/16z3/8D,3/2-D,3/16z3/8|D,3-D,3/8z3/4|zz/2A,7/16D,z/2E,7/16|
F,z/2G,7/16A,3/2-A,3/16z3/8|G,3/2-G,3/16z3/8F,3/2-F,3/16z3/8|G,3/2-G,3/16z3/8G,3/2-G,3/16z3/8|C,3/2-C,3/16z3/8F,z/2C,7/16|
D,z/2E,7/16F,3/2-F,3/16z3/8|E,3/2-E,3/16z3/8D,3/2-D,3/16z3/8|D,3-D,3/8z3/4|zz/2A,7/16D,z/2E,7/16|
F,z/2G,7/16A,3/2-A,3/16z3/8|G,3/2-G,3/16z3/8F,3/2-F,3/16z3/8|G,3/2-G,3/16z3/8G,3/2-G,3/16z3/8|C,3/2-C,3/16z3/8F,3/2-F,3/16z3/8|
z2F,15/16F,15/16|G,4-|G,15/8C,2-|C,zF,z/2F,3/8z/8|
F,/2(3:2z/4F,/2z/4F,/2(3:2z/4F,z/2E,3/8z/8|E,z/2D,3/8z/8D,z/2C,3/8z/8|z2F,7/8z/8F,7/8z/8|G,4-|
G,31/16C,2-|C,zF,z/2F,3/8z/8|F,/2(3:2z/4F,/2z/4F,/2(3:2z/4F,z/2E,3/8z/8|E,z/2D,3/8z/8D,z/2C,3/8z/8|
z2F,15/16F,15/16|G,4-|G,15/8C,2-|C,zF,z/2F,3/8z/8|
F,/2(3:2z/4F,/2z/4F,/2(3:2z/4F,z/2E,3/8z/8|E,z/2D,3/8z/8D,z/2C,3/8z/8|z2F,7/8z/8F,7/8z/8|G,4-|
G,31/16C,2-|C,zF,z/2F,3/8z/8|F,/2(3:2z/4F,/2z/4F,/2(3:2z/4F,z/2E,3/8z/8|E,z/2D,3/8z/8D,z/2C,3/8z/8|
F,,zF,,z|F,,zF,,z|(3:2F,z/2F,/2(3:2z/4F,/2z/4|C,z|
C,zC,z|C,zC,z|(3:2C,z/2C,/2(3:2z/4C,/2z/4|F,,z|
z2^A,,z|^A,,z^A,,z|z2A,,z|A,,zC,z|
z2^A,,z|A,,zG,,z|E,,zF,,z|F,,zC,z|
F,7/16z15/64F,7/16z15/64F,7/16z15/64F,z|C,7/16z15/64C,7/16z15/64C,7/16z15/64C,z|C,7/16z15/64C,7/16z15/64C,7/16z15/64F,,z/2(3:2F,,/2z/4|F,,7/16z15/64F,,7/16z15/64F,,7/16z15/64F,,z7/32
L:1/8
M:2/4
K:C clef=F4
V:7
%%MIDI program 48
z4|z4|z4|z4|
z2F,,3/2-F,,3/16z3/8|E,,3/2-E,,3/16z3/8D,,3/2-D,,3/16z3/8|D,,3-D,,3/8z3/4|zz/2A,,7/16D,,z/2E,,7/16|
F,,z/2G,,7/16A,,3/2-A,,3/16z3/8|G,,3/2-G,,3/16z3/8F,,3/2-F,,3/16z3/8|G,,3/2-G,,3/16z3/8G,,3/2-G,,3/16z3/8|C,,3/2-C,,3/16z3/8F,,z/2C,,7/16|
D,,z/2E,,7/16F,,3/2-F,,3/16z3/8|E,,3/2-E,,3/16z3/8D,,3/2-D,,3/16z3/8|D,,3-D,,3/8z3/4|zz/2A,,7/16D,,z/2E,,7/16|
F,,z/2G,,7/16A,,3/2-A,,3/16z3/8|G,,3/2-G,,3/16z3/8F,,3/2-F,,3/16z3/8|G,,3/2-G,,3/16z3/8G,,3/2-G,,3/16z3/8|C,,3/2-C,,3/16z3/8F,,3/2-F,,3/16z3/8|
z4|z4|z4|z4|
z4|z4|z4|z4|
z4|z4|z4|z4|
z4|z4|z4|z4|
z4|z4|z4|z4|
z4|z4|z4|z4|
z4|z4|z4|z4|
z4|z4|z4|z4|
z4|z4|z4|z4|
z4|z4|z4|z4|
z4|z4|z4|z2zz/2
L:1/8
M:2/4
K:C clef=F4
V:8
%%MIDI program 43
z4|z4|z4|z4|
z4|z4|z4|z4|
z4|z4|z4|z4|
z4|z4|z4|z4|
z4|z4|z4|z4|
z4|z4|z4|z4|
z4|z4|z4|z4|
z4|z4|z4|z4|
z4|z4|z4|z4|
z4|z4|z4|z4|
z4|z4|z4|z4|
z2F,,,z31/64F,,3/8z/8|F,,,z/2F,,3/8z/8F,,,z/2F,,3/8z/8|F,,3/4z/4F,,3/8z/8F,,3/8z/8C,,2-|C,,2-C,,3/4zz3/8|
C,,z/2C,3/8z/8C,,z/2C,3/8z/8|C,,z/2C,3/8z/8C,,z/2C,3/8z/8|C,3/4z/4C,3/8z/8C,3/8z/8F,,2-|F,,2-F,,3/4zz3/8|
z2^A,,,3/2z15/32|^A,,,3/2z15/32^A,,,2-|^A,,,zA,,,3/2z15/32|A,,,3/2z15/32C,,3/2z15/32|
z2^A,,3/2z15/32|A,,3/2z15/32G,,3/2z15/32|E,,3/2z15/32F,,3/2z15/32|F,,3/2z15/32C,,3/2z15/32|
D,,/2(3:2z/4D,,/2z/4D,,/2(3:2z/4F,,3/2z15/32|F,,/2(3:2z/4F,,/2z/4F,,/2(3:2z/4E,,3/2z15/32|C,,/2(3:2z/4C,,/2z/4C,,/2(3:2z/4F,,z/2F,,3/8z/8|F,,/2(3:2z/4F,,/2z/4F,,/2(3:2z/4F,,3/2
L:1/8
M:2/4
K:C clef=F4
V:9
%%MIDI program 60
F15/8F3/4z3/4(3:2F/2z/4|F7/16z15/64F7/16z15/64F7/16z15/64F3/4zz/4|F15/8F3/4z3/4(3:2F/2z/4|F7/16z15/64F7/16z15/64F7/16z15/64F3/4z3/4C15/32|
Dz/2E15/32[C-A,-]3/2[CA,]3/16z3/8|[C-A,-]3/2[CA,]3/16z3/8[A,-C-]3/2[A,C]3/16z3/8|[D-^A,-]3[D^A,]3/8z3/4|zz/2A,7/16D,z/2E,7/16|
F,z/2G,7/16[^C-E-]3/2[^CE]3/16z3/8|[^C-E-]3/2[^CE]3/16z3/8[D-F-]3/2[DF]3/16z3/8|[D-F-]3/2[DF]3/16z3/8[E-^A,-]3/2[E^A,]3/16z3/8|[G,-^A,-]3/2[G,^A,]3/16z3/8[CA,]z/2C7/16|
Dz/2E7/16[A,-C-]3/2[A,C]3/16z3/8|[A,-C-]3/2[A,C]3/16z3/8[A,-C-]3/2[A,C]3/16z3/8|[D-^A,-]3[D^A,]3/8z3/4|zz/2A,7/16D,z/2E,7/16|
F,z/2G,7/16[^C-E-]3/2[^CE]3/16z3/8|[^C-E-]3/2[^CE]3/16z3/8[D-F-]3/2[DF]3/16z3/8|[D-F-]3/2[DF]3/16z3/8[E-^A,-]3/2[E^A,]3/16z3/8|[G,-^A,-]3/2[G,^A,]3/16z3/8[C-A,-]3/2[CA,]3/16z3/8|
z2[F,A,]15/16[F,A,]15/16|[G,-^A,-]4|[G,^A,]2[C,-G,-^A,-]2|[C,G,^A,][C,]3/16z7/8[F,CA,]z/2[CA,F,]3/8z/8|
[F,A,C]/2(3:2z/4[A,F,C]/2z/4[F,A,C]/2(3:2z/4[F,A,C]z/2[E,G,]3/8z/8|[E,G,]z/2[D,F,]3/8z/8[F,D,]z/2[E,C,]3/8z/8|z2[F,A,]7/8z/8[F,A,]7/8z/8|[^A,-G,-]4|
[^A,G,]2[C,-^A,-G,-]2|(5:4[C,^A,G,]/2[C,]31/32z3/4[A,CF,]z/2[F,A,C]3/8z/8|[F,A,C]/2(3:2z/4[F,A,C]/2z/4[A,CF,]/2(3:2z/4[A,F,C]z/2[G,E,]3/8z/8|[G,E,]z/2[F,D,]3/8z/8[D,F,]z/2[E,C,]3/8z/8|
z2[F,A,]15/16[F,A,]15/16|[G,-^A,-]4|[G,^A,]2[C,-G,-^A,-]2|[C,G,^A,][C,]3/16z7/8[F,CA,]z/2[CA,F,]3/8z/8|
[F,A,C]/2(3:2z/4[A,F,C]/2z/4[F,A,C]/2(3:2z/4[F,A,C]z/2[E,G,]3/8z/8|[E,G,]z/2[D,F,]3/8z/8[F,D,]z/2[E,C,]3/8z/8|z2[F,A,]7/8z/8[F,A,]7/8z/8|[^A,-G,-]4|
[^A,G,]2[C,-^A,-G,-]2|(5:4[C,^A,G,]/2[C,]31/32z3/4[A,CF,]z/2[F,A,C]3/8z/8|[F,A,C]/2(3:2z/4[F,A,C]/2z/4[A,CF,]/2(3:2z/4[A,F,C]z/2[G,E,]3/8z/8|[G,E,]z/2[F,D,]3/8z/8[D,F,]z/2[E,C,]3/8z/8|
z4|z4|z2[G,-E,-^A,][G,-E,-]/2[G,-E,-A,]7/16|[G,-E,-C][G,-E,-]/2[G,-E,-^A,]7/16[D-G,E,][D]/4z/4C7/16|
z4|z4|C7/8z/8C7/16C7/16[A,-F,-C][A,-F,-]/2[A,-F,-^A,]7/16|[A,-F,-D][A,-F,-]/2[A,-F,-C]7/16[E-A,F,][E]/4z/4D7/16|
Fz/2F7/16[D-F-]3/2[DF]3/16z3/8|[D-F-]3/2[DF]3/16z3/8[F-D-]2|[FD]z[C-F-]3/2[CF]3/16z3/8|[F-C-]3/2[FC]3/16z2z3/8|
z2[D-F-]3/2[DF]3/16z3/8|[D-F-]3/2[DF]3/16z3/8[D-^A,-]3/2[D^A,]3/16z3/8|[C-^A,-]3/2[C^A,]3/16z3/8[C-A,-]3/2[CA,]3/16z3/8|[C-A,-]3/2[CA,]3/16z2z3/8|
[F,^A,D,]31/64z3/16[F,^A,D,]31/64z3/16[^A,F,D,]31/64z3/16[F,CA,]z|[G,F,C]31/64z3/16[CG,F,]31/64z3/16[CF,G,]31/64z3/16[C^A,E,]z|[^A,E,C]31/64z3/16[C^A,E,]31/64z3/16[CE,^A,]31/64z3/16[CF,A,]z/2[A,F,C]3/8z/8|[A,CF,]31/64z3/16[CA,F,]31/64z3/16[CF,A,]31/64z3/16[CF,A,]
L:1/8
M:2/4
K:C clef=F4
V:10
%%MIDI program 60
F,zF,z/2(3:2F,/2z/4|F,7/16z15/64F,7/16z15/64F,7/16z15/64(3:2F,zz/2|F,zF,z/2(3:2F,/2z/4|F,7/16z15/64F,7/16z15/64F,7/16z15/64(3:2F,zz/2|
z2A,z|A,zCz|^A,z^A,z|z4|
z2^Cz|^CzDz|FzEz|^A,zA,z|
z2A,z|A,zCz|^A,z^A,z|z4|
z2^Cz|^CzDz|FzEz|^A,zA,z|
z2(3:2A,z/2A,(3:2z/2|^A,4-|zz31/32G,2-|G,3/4zz/4A,z/2(3:2A,/2z/4|
A,7/16z15/64A,7/16z15/64A,7/16z15/64A,z/2(3:2G,/2z/4|G,z/2(3:2F,/2z/4F,z/2(3:2E,/2z/4|z2(3:2A,z/2A,(3:2z/2|^A,4-|
zz31/32G,2-|G,3/4zz/4A,z/2(3:2A,/2z/4|A,7/16z15/64A,7/16z15/64A,7/16z15/64A,z/2(3:2G,/2z/4|G,z/2(3:2F,/2z/4F,z/2(3:2E,/2z/4|
z2(3:2A,z/2A,(3:2z/2|^A,4-|zz31/32G,2-|G,3/4zz/4A,z/2(3:2A,/2z/4|
A,7/16z15/64A,7/16z15/64A,7/16z15/64A,z/2(3:2G,/2z/4|G,z/2(3:2F,/2z/4F,z/2(3:2E,/2z/4|z2(3:2A,z/2A,(3:2z/2|^A,4-|
zz31/32G,2-|G,3/4zz/4A,z/2(3:2A,/2z/4|A,7/16z15/64A,7/16z15/64A,7/16z15/64A,z/2(3:2G,/2z/4|G,z/2(3:2F,/2z/4F,z/2(3:2E,/2z/4|
F,zF,z|F,zF,z|(3:2F,z/2F,/2(3:2z/4F,/2z/4^A,z/2(3:2A,/2z/4|Cz/2(3:2^A,/2z/4Dz/2(3:2C/2z/4|
CzCz|CzCz|(3:2Cz/2C/2(3:2z/4C/2z/4Cz/2(3:2^A,/2z/4|Dz/2(3:2C/2z/4Ez/2(3:2D/2z/4|
Fz/2(3:2F/2z/4Dz|DzD2-|D3/4zz/4Fz|FzC,z|
z2Fz|Fz^A,z|CzA,z|A,zC,z|
^A,7/16z15/64^A,7/16z15/64^A,7/16z15/64Cz|C7/16z15/64C7/16z15/64C7/16z15/64Cz|^A,7/16z15/64^A,7/16z15/64^A,7/16z15/64A,z/2(3:2A,/2z/4|A,7/16z15/64A,7/16z15/64A,7/16z15/64A,z7/32


